svg/fluentui-system-icons/ic_fluent_weather_sunny_low_48_filled.svg

<svg width="48" height="48" viewBox="0 0 48 48" fill="none" xmlns="http://www.w3.org/2000/svg">
<path d="M23.9998 13.0803C30.0305 13.0803 34.9193 17.9691 34.9193 23.9997C34.9193 24.6829 34.8565 25.3514 34.7365 25.9998H42.75C43.4404 25.9998 44 26.5594 44 27.2498C44 27.9401 43.4404 28.4998 42.75 28.4998H5.25C4.55964 28.4998 4 27.9401 4 27.2498C4 26.5594 4.55964 25.9998 5.25 25.9998H13.2631C13.1431 25.3514 13.0804 24.6829 13.0804 23.9997C13.0804 17.9691 17.9692 13.0803 23.9998 13.0803ZM11.5055 9.80405L11.607 9.89518L13.7549 12.043C14.243 12.5312 14.243 13.3226 13.7549 13.8108C13.2993 14.2664 12.5794 14.2968 12.0886 13.9019L11.9871 13.8108L9.83926 11.6629C9.35111 11.1748 9.35111 10.3833 9.83926 9.89518C10.2949 9.43957 11.0147 9.40919 11.5055 9.80405ZM38.1439 9.89518C38.5996 10.3508 38.6299 11.0706 38.2351 11.5614L38.1439 11.6629L35.9961 13.8108C35.5079 14.299 34.7165 14.299 34.2283 13.8108C33.7727 13.3552 33.7423 12.6354 34.1372 12.1445L34.2283 12.043L36.3762 9.89518C36.8643 9.40702 37.6558 9.40702 38.1439 9.89518ZM24.0003 3.99707C24.6475 3.99707 25.1799 4.48895 25.2439 5.11927L25.2503 5.24707V8.28459C25.2503 8.97495 24.6907 9.53459 24.0003 9.53459C23.3531 9.53459 22.8208 9.04272 22.7568 8.4124L22.7503 8.28459V5.24707C22.7503 4.55671 23.31 3.99707 24.0003 3.99707ZM21.25 37.9998C20.5596 37.9998 20 38.5594 20 39.2498C20 39.9401 20.5596 40.4998 21.25 40.4998H26.75C27.4404 40.4998 28 39.9401 28 39.2498C28 38.5594 27.4404 37.9998 26.75 37.9998H21.25ZM12 33.2498C12 32.5594 12.5596 31.9998 13.25 31.9998H34.75C35.4404 31.9998 36 32.5594 36 33.2498C36 33.9401 35.4404 34.4998 34.75 34.4998H13.25C12.5596 34.4998 12 33.9401 12 33.2498Z" fill="#212121"/>
</svg>

<svg xmlns="http://www.w3.org/2000/svg" width="48" height="48"><path d="M24 13.08c6.03 0 10.92 4.89 10.92 10.92 0 .683-.064 1.351-.184 2h8.014a1.25 1.25 0 1 1 0 2.5H5.25a1.25 1.25 0 0 1 0-2.5h8.013a10.983 10.983 0 0 1-.183-2c0-6.03 4.89-10.92 10.92-10.92ZM11.505 9.804l.102.091 2.148 2.148a1.25 1.25 0 0 1-1.666 1.859l-.102-.091-2.148-2.148a1.25 1.25 0 0 1 1.666-1.859Zm26.639.091a1.25 1.25 0 0 1 .091 1.666l-.091.102-2.148 2.148a1.25 1.25 0 0 1-1.859-1.666l.091-.102 2.148-2.148a1.25 1.25 0 0 1 1.768 0ZM24 3.997c.648 0 1.18.492 1.244 1.122l.006.128v3.038a1.25 1.25 0 0 1-2.493.127l-.007-.127V5.247c0-.69.56-1.25 1.25-1.25ZM21.25 38a1.25 1.25 0 1 0 0 2.5h5.5a1.25 1.25 0 0 0 0-2.5h-5.5ZM12 33.25c0-.69.56-1.25 1.25-1.25h21.5a1.25 1.25 0 1 1 0 2.5h-21.5c-.69 0-1.25-.56-1.25-1.25Z"/></svg>
